!!!COM: Mingao, Rui Alberto Vieira Dias
!!!CDT: b. 1939
!!!OTL: National Anthem, Angola
!!!ENC: Davis, Matthew J.
!!Vocal Line Only
**kern
*clefG2
*k[]
*C:
*M4/4
=1-
4G
=2
8.c
16c
8.c
16e
8.g
16g
8.g
16e
=3
2d
8d
8r
8.d
16e
=4
4f
8f
8f
8f
8f
8g
8a
=5
2g
8e
8r
4G
=6
8.c
16c
8.c
16e
8g
8g
8g
8e
=7
2d
8d
8r
(8.d
16e)
=8
8f
8f
8f
8f
8f
8f
8g
8a
=9
2g
8e
8r
4g
=10
8.cc
16cc
8.cc
16cc
8.cc
16cc
8.cc
16cc
=11
2b
8b
8r
8.b
16b
=12
8.b
16b
8.b
16a
8g
8g
8.g
16a
=13
2e
8c
8r
4g
=14
8.cc
16cc
8.cc
16cc
8.cc
16cc
8.cc
16cc
=15
2b
8b
8r
8.b
16b
=16
8.b
16b
8.b
16a
8a
8g
8.g
16f
=17
!Measures 17 and 18 together equal 4 beats (1 measure).  (The score has them separated).
2e
8c
16r
=18
16g
8.g
16g
!(See the above comment)
=19
2dd
8.g
16g
8.g
16g
=20
2cc
2r
=21
4b
8.a
16g
4f
8.g
16a
=22
2g
4r
8.g
16g
=23
2dd
4g
8.g
16g
=24
2cc
4cc
8.g
16g
=25
4b
8.a
16g
4f
4d
=26
8c
8r
4r
8.r
16g
8.g
16g
=27
2dd
8.g
16g
8.g
16g
=28
2cc
2r
=29
4b
8.a
16g
4f
8.g
16a
=30
2g
4r
8.g
16g
=31
2dd
4g
8.g
16g
=32
2cc
4cc
8.g
16g
=33
4b
8.a
16g
4f
4d
=34
8c
8r
4r
4r
==|!
*-
